X:3147
T:Jordan's Reel
O:england
M:4/4
L:1/8
C:Peter Dawson
R:Reel
K:Bb
fe|dBAB FBDF|B,FDF BcdB|Gccd ecge|cecA FAcA|
BFDF B,FDF|GEB,E G,B,EG|FcAF ecAc|Bbfd B2:|
K:f
AB|(3cdc ^Bd cAFA|cfAc fcaf|dbfd cafc|Bgec BcAB|
(3cdc ^Bd cAFA|cfAc fcaf|dbfd cafc|Bgec f2:|


